src/assets/subject_icons/more-resources.svg

<svg fill="none" height="80" viewBox="0 0 80 80" width="80" xmlns="http://www.w3.org/2000/svg"><path d="m40 80c22.0914 0 40-17.9086 40-40s-17.9086-40-40-40-40 17.9086-40 40 17.9086 40 40 40z" fill="#b5e2fa"/><path d="m18.6346 44.0266c1.006 1.4937 1.5715 3.2402 1.632 5.04-.0562 1.8014-.62 3.5503-1.6266 5.0453h31.312l6.4-1.7813.1173-6.128-6.5387-2.1333z" fill="#fff"/><path d="m21.5306 25.8827c.9297 1.2349 1.4634 2.7224 1.5307 4.2667-.0673 1.5442-.601 3.0318-1.5307 4.2666h24.7627l3.584-1.8133v-5.2693l-3.072-1.4347z" fill="#fff"/><path d="m18.6347 54.4907c-.099 0-.194-.0394-.264-.1094s-.1093-.165-.1093-.264v-2.1333c0-.099.0393-.194.1093-.264s.165-.1093.264-.1093h34.9067c.2826-.064 2.2026-.592 2.2026-2.5334 0-2.5333-2.1333-2.7413-2.192-2.752l-34.9173.1974c-.0979-.0041-.1909-.044-.2613-.112-.0351-.034-.0631-.0746-.0823-.1195-.0192-.0448-.0293-.0931-.0297-.1419v-2.1333c-.0001-.0488.0096-.0971.0285-.1421.0188-.045.0464-.0858.0811-.12.0348-.0343.076-.0613.1212-.0794.0453-.0182.0937-.0272.1425-.0265h34.944c.08 0 4.8587.4213 4.8587 5.4133s-4.8 5.4134-4.832 5.4187z" fill="#1855d1"/><path d="m61.3813 35.2c-.9211 1.1576-1.4547 2.5756-1.5253 4.0533.0706 1.4777.6042 2.8957 1.5253 4.0533h-29.4187l-5.7013-1.456-.128-4.9173 5.8293-1.7333z" fill="#fff"/><path d="m61.3333 43.6587h-2.0107l-30.7093-.0373c-.064 0-2.192.1173-3.6107-1.2107-.4073-.4048-.7247-.891-.9315-1.4267-.2068-.5358-.2982-1.1091-.2685-1.6826-.0266-.5796.0662-1.1584.2727-1.7007.2064-.5422.522-1.0362.9273-1.4513 1.0079-.8726 2.2989-1.3484 3.632-1.3387h32.7093c.0485-.0006.0966.0085.1415.0269.0449.0183.0857.0454.1199.0798.0698.0692.11.1629.112.2613v2.1333c0 .0976-.0388.1912-.1078.2602-.069.0691-.1626.1078-.2602.1078l-32.72.2667c-.0587 0-1.7547.0907-1.7547 1.344s1.7707 1.456 1.7867 1.456l32.688.0373c.0981.0027.1915.0429.261.1124.0694.0694.1096.1628.1123.261v2.1333c-.0007.0499-.0114.0993-.0314.145-.0201.0458-.0491.087-.0854.1213-.0364.0343-.0792.061-.126.0785-.0468.0174-.0966.0253-.1465.0232z" fill="#16d2aa"/><path d="m46.4001 34.8106h-24.8694c-.0976 0-.1912-.0387-.2602-.1078-.069-.069-.1078-.1626-.1078-.2602v-2.1333c0-.0976.0388-.1912.1078-.2602s.1626-.1078.2602-.1078h24.8c.5839.0477 1.1648-.1213 1.632-.4747.1711-.1707.3035-.3762.3881-.6026.0847-.2263.1197-.4683.1026-.7094.0108-.2482-.0285-.4961-.1155-.7288-.0871-.2328-.2201-.4456-.3912-.6258-.4634-.3849-1.0456-.5978-1.648-.6027l-24.7626.192c-.0986-.0037-.1928-.0414-.2667-.1067-.0684-.0698-.1067-.1636-.1067-.2613v-2.1333c0-.0981.0386-.1923.1075-.2622.0688-.0698.1624-.1098.2605-.1112h24.7627c1.3039-.0291 2.5732.4206 3.568 1.264.4393.4432.7807.9736 1.0021 1.557.2214.5833.3179 1.2067.2832 1.8297.0346.6222-.062 1.2447-.2834 1.8272s-.5628 1.112-1.0019 1.5541c-.9621.8276-2.1924 1.2769-3.4613 1.264z" fill="#1855d1"/></svg>

<svg width="80" height="80" viewBox="0 0 80 80" fill="none" xmlns="http://www.w3.org/2000/svg">
<path d="M40 80C62.0914 80 80 62.0914 80 40C80 17.9086 62.0914 0 40 0C17.9086 0 0 17.9086 0 40C0 62.0914 17.9086 80 40 80Z" fill="#B5E2FA"/>
<path d="M18.6346 44.0266C19.6406 45.5203 20.2061 47.2668 20.2666 49.0666C20.2104 50.868 19.6466 52.6169 18.64 54.1119H49.952L56.352 52.3306L56.4693 46.2026L49.9306 44.0693L18.6346 44.0266Z" fill="white"/>
<path d="M21.5306 25.8827C22.4603 27.1176 22.994 28.6051 23.0613 30.1494C22.994 31.6936 22.4603 33.1812 21.5306 34.416H46.2933L49.8773 32.6027V27.3334L46.8053 25.8987L21.5306 25.8827Z" fill="white"/>
<path d="M18.6347 54.4907C18.5357 54.4907 18.4407 54.4513 18.3707 54.3813C18.3007 54.3113 18.2614 54.2163 18.2614 54.1173V51.984C18.2614 51.885 18.3007 51.79 18.3707 51.72C18.4407 51.65 18.5357 51.6107 18.6347 51.6107H53.5414C53.824 51.5467 55.744 51.0187 55.744 49.0773C55.744 46.544 53.6107 46.336 53.552 46.3253L18.6347 46.5227C18.5368 46.5186 18.4438 46.4787 18.3734 46.4107C18.3383 46.3767 18.3103 46.3361 18.2911 46.2912C18.2719 46.2464 18.2618 46.1981 18.2614 46.1493V44.016C18.2613 43.9672 18.271 43.9189 18.2899 43.8739C18.3087 43.8289 18.3363 43.7881 18.371 43.7539C18.4058 43.7196 18.447 43.6926 18.4922 43.6745C18.5375 43.6563 18.5859 43.6473 18.6347 43.648H53.5787C53.6587 43.648 58.4374 44.0693 58.4374 49.0613C58.4374 54.0533 53.6374 54.4747 53.6054 54.48L18.6347 54.4907Z" fill="#1855D1"/>
<path d="M61.3813 35.2C60.4602 36.3576 59.9266 37.7756 59.856 39.2533C59.9266 40.731 60.4602 42.149 61.3813 43.3066H31.9626L26.2613 41.8506L26.1333 36.9333L31.9626 35.2H61.3813Z" fill="white"/>
<path d="M61.3333 43.6587H59.3226L28.6133 43.6214C28.5493 43.6214 26.4213 43.7387 25.0026 42.4107C24.5953 42.0059 24.2779 41.5197 24.0711 40.984C23.8643 40.4482 23.7729 39.8749 23.8026 39.3014C23.776 38.7218 23.8688 38.143 24.0753 37.6007C24.2817 37.0585 24.5973 36.5645 25.0026 36.1494C26.0105 35.2768 27.3015 34.801 28.6346 34.8107H61.3439C61.3924 34.8101 61.4405 34.8192 61.4854 34.8376C61.5303 34.8559 61.5711 34.883 61.6053 34.9174C61.6751 34.9866 61.7153 35.0803 61.7173 35.1787V37.312C61.7173 37.4096 61.6785 37.5032 61.6095 37.5722C61.5405 37.6413 61.4469 37.68 61.3493 37.68L28.6293 37.9467C28.5706 37.9467 26.8746 38.0374 26.8746 39.2907C26.8746 40.544 28.6453 40.7467 28.6613 40.7467L61.3493 40.784C61.4474 40.7867 61.5408 40.8269 61.6103 40.8964C61.6797 40.9658 61.7199 41.0592 61.7226 41.1574V43.2907C61.7219 43.3406 61.7112 43.39 61.6912 43.4357C61.6711 43.4815 61.6421 43.5227 61.6058 43.557C61.5694 43.5913 61.5266 43.618 61.4798 43.6355C61.433 43.6529 61.3832 43.6608 61.3333 43.6587Z" fill="#16D2AA"/>
<path d="M46.4001 34.8106H21.5307C21.4331 34.8106 21.3395 34.7719 21.2705 34.7028C21.2015 34.6338 21.1627 34.5402 21.1627 34.4426V32.3093C21.1627 32.2117 21.2015 32.1181 21.2705 32.0491C21.3395 31.9801 21.4331 31.9413 21.5307 31.9413H46.3307C46.9146 31.989 47.4955 31.82 47.9627 31.4666C48.1338 31.2959 48.2662 31.0904 48.3508 30.864C48.4355 30.6377 48.4705 30.3957 48.4534 30.1546C48.4642 29.9064 48.4249 29.6585 48.3379 29.4258C48.2508 29.193 48.1178 28.9802 47.9467 28.8C47.4833 28.4151 46.9011 28.2022 46.2987 28.1973L21.5361 28.3893C21.4375 28.3856 21.3433 28.3479 21.2694 28.2826C21.201 28.2128 21.1627 28.119 21.1627 28.0213V25.888C21.1627 25.7899 21.2013 25.6957 21.2702 25.6258C21.339 25.556 21.4326 25.516 21.5307 25.5146H46.2934C47.5973 25.4855 48.8666 25.9352 49.8614 26.7786C50.3007 27.2218 50.6421 27.7522 50.8635 28.3356C51.0849 28.9189 51.1814 29.5423 51.1467 30.1653C51.1813 30.7875 51.0847 31.41 50.8633 31.9925C50.6419 32.575 50.3005 33.1045 49.8614 33.5466C48.8993 34.3742 47.669 34.8235 46.4001 34.8106Z" fill="#1855D1"/>
</svg>
